mobile/24/svg/sync-tabs-24.svg

<svg width="24" height="24" viewBox="0 0 24 24" fill="none" xmlns="http://www.w3.org/2000/svg">
<path fill-rule="evenodd" clip-rule="evenodd" d="M0 4.75C0 3.36975 1.11975 2.25 2.5 2.25H10.5C11.8802 2.25 13 3.36975 13 4.75V9.25C13 10.6302 11.8802 11.75 10.5 11.75H2.5C1.11975 11.75 0 10.6302 0 9.25V4.75ZM2.5 4C2.08625 4 1.75 4.33625 1.75 4.75V9.25C1.75 9.66375 2.08625 10 2.5 10H10.25V4H2.5Z" fill="black"/>
<path d="M20.275 7.75H14.75V6H20.275C21.6552 6 22.775 7.11975 22.775 8.5V18.25C22.775 19.0676 22.3821 19.7938 21.7749 20.25H24V22H2V20.25H5.25014C4.64291 19.7938 4.25 19.0676 4.25 18.25V13.5H6V18.25C6 18.6637 6.33625 19 6.75 19H20.275C20.6888 19 21.025 18.6637 21.025 18.25V8.5C21.025 8.08625 20.6888 7.75 20.275 7.75Z" fill="black"/>
</svg>

<svg width="24" height="24" fill="none" xmlns="http://www.w3.org/2000/svg"><path fill-rule="evenodd" clip-rule="evenodd" d="M0 4.75a2.5 2.5 0 0 1 2.5-2.5h8a2.5 2.5 0 0 1 2.5 2.5v4.5a2.5 2.5 0 0 1-2.5 2.5h-8A2.5 2.5 0 0 1 0 9.25v-4.5zM2.5 4a.75.75 0 0 0-.75.75v4.5c0 .414.336.75.75.75h7.75V4H2.5z" fill="#000"/><path d="M20.275 7.75H14.75V6h5.525a2.5 2.5 0 0 1 2.5 2.5v9.75c0 .818-.393 1.544-1 2H24V22H2v-1.75h3.25a2.497 2.497 0 0 1-1-2V13.5H6v4.75c0 .414.336.75.75.75h13.525a.75.75 0 0 0 .75-.75V8.5a.75.75 0 0 0-.75-.75z" fill="#000"/></svg>
